X:1
T:Pretty Little Bird
M:4/4
L:1/8
K:G
 D2| G2 GG B/2 B3/2 A/2 A3/2| G6 DD| G/2 G3/2 GB d2 cB| A6 DD| G2 G2 B2 AB|\
 c2 cc E2 FE| D D3 F/2 F3/2 EG| G6||
